X: 31270
T: Paddy Hayes'
R: reel
M: 4/4
K: Dmajor
A/B/c|:d2 cd B/c/d AF|DE F/E/D defg|ad f/e/d adbd|cd e/d/c AB c/B/A|
d/e/d cA B/c/d AF|DE F/E/D defg|ad f/e/d fdad|1 cd e/d/c d2 g/f/e:|2 cd e/d/c dAde|
|:fd d/c/d fd a/g/f|cA A/B/A EAce|fefg a/g/f gf|e/f/e d/c/B Acde|
fd d/c/d ad f/e/d|cA A/B/A EAce|fefg a/g/f ag|1 ea c/d/e d2 de:|2 eace d2|

